X:1
T:Title
%%score { ( 1 4 ) | ( 2 3 5 ) }
L:1/8
Q:1/4=110
M:4/4
K:Ab
V:1 treble nm="Grand Piano"
V:4 treble 
V:2 bass 
V:3 bass 
V:5 bass 
V:1
 [CA]3 [DB] [Ec]2 [DB]2 | [A,CA]2 .[CEG]2 [A,DF]2 [A,CE]2 | F3 G A2 B2 | [CA]8 | %4
w: T.~E.~Perkins * * *||||
 [CA]3 [DB] [Ec]2 [DB]2 | [A,CA]2 .[CEG]2 [A,DF]2 [A,CE]2 | [A,DF]4 [A,CA]2 [DB]2 | [CA]8 | %8
w: ||||
 B3 B c2 d2 | c2 B2 [EA]2 [CE]2 | z4 A2 z2 | c2 A,-[A,FB] [Ec]2 [DB]2 | [CA]3 [DB] [Ec]2 [DB]2 | %13
w: |||||
 [A,CA]2 .[CEG]2 [A,DF]2 [A,CE]2 | F3 G A2 B2 | [CA]8 |] %16
w: |||
V:2
 [A,,A,]3 [A,,A,] [A,,A,]2 [E,G,]2 | F,2 z B, D,2 A,,2 | [D,A,D]4 [E,A,C]2 [E,G,D]2 | [A,,A,]8 | %4
 [A,,A,]3 [A,,A,] [A,,A,]2 [E,G,]2 | F,2 z B, D,2 A,,2 | z2 z G E,2 [E,G,]2 | [A,,A,]8 | %8
 [E,G,E]3 [E,G,E] [E,A,E]2 [E,G,E]2 | [A,E]2 [E,G,E]2 [C,A,]2 [A,,A,]2 | z4 E2 z2 | %11
 [A,E]2 C,D, [E,A,]2 [E,G,]2 | [A,,A,]3 [A,,A,] [A,,A,]2 [E,G,]2 | F,2 z B, D,2 A,,2 | %14
 [D,A,D]4 [E,A,C]2 [E,G,D]2 | [A,,A,]8 |] %16
V:3
 x8 | z2 C,2 z4 | x8 | x8 | x8 | z2 C,2 z4 | D,4 z4 | x8 | x8 | x8 | [D,A,D]3 D z C, [E,G,E]2 | %11
 x8 | x8 | z2 C,2 z4 | x8 | x8 |] %16
V:4
 x8 | x8 | x8 | x8 | x8 | x8 | x8 | x8 | x8 | x8 | F3 G z A, B2 | z2 .[EA]2 z4 | x8 | x8 | x8 | %15
 x8 |] %16
V:5
 x8 | x8 | x8 | x8 | x8 | x8 | x8 | x8 | x8 | x8 | z2 z [D,B,]- [D,B,] z z2 | x8 | x8 | x8 | x8 | %15
 x8 |] %16

